src/components/Icon/assets/hand-thumbdown-filled.svg

<svg width="24" height="24" viewBox="0 0 24 24" fill="none" xmlns="http://www.w3.org/2000/svg">
<g id="hand-thumbdown-filled">
<g id="Combined Shape">
<path d="M16.7772 20.9756C16.4066 21.3461 15.9663 21.49 15.537 21.49C15.1092 21.49 14.6668 21.3446 14.3001 20.9779L8.8302 15.509L8.62772 15.2969C7.57725 14.1449 7 12.6584 7 11.089V10.313L7.00512 10.0572C7.10392 7.5946 8.62428 5.43168 10.9286 4.50949C11.7753 4.17175 12.6656 4 13.573 4H16.25L16.4418 4.0057C17.7139 4.08139 18.8406 4.90481 19.2922 6.1076L21.5422 12.1085L21.611 12.3111C21.9002 13.2618 21.7429 14.2764 21.1702 15.1023L21.0433 15.2739C20.4284 16.0516 19.504 16.5 18.5 16.5L14.7708 16.5007L16.7749 18.5031L16.8881 18.6282C17.4539 19.3166 17.4163 20.3331 16.7772 20.9756Z" fill="#242428"/>
<path d="M3.0543 14.727C2.9998 14.62 2.9998 14.48 2.9998 14.2V5.80001C2.9998 5.51998 2.9998 5.37997 3.0543 5.27301C3.10224 5.17893 3.17873 5.10244 3.27281 5.05451C3.37976 5.00001 3.51978 5.00001 3.7998 5.00001H5.1998C5.47983 5.00001 5.61984 5.00001 5.7268 5.05451C5.82088 5.10244 5.89737 5.17893 5.9453 5.27301C5.9998 5.37997 5.9998 5.51998 5.9998 5.80001V14.2C5.9998 14.48 5.9998 14.62 5.9453 14.727C5.89737 14.8211 5.82088 14.8976 5.7268 14.9455C5.61984 15 5.47983 15 5.1998 15H3.7998C3.51978 15 3.37976 15 3.27281 14.9455C3.17873 14.8976 3.10224 14.8211 3.0543 14.727Z" fill="#242428"/>
</g>
</g>
</svg>

<svg xmlns="http://www.w3.org/2000/svg" width="24" height="24" fill="none" viewBox="0 0 24 24">
    <path fill="#65676A" d="M16.777 20.976c-.37.37-.81.514-1.24.514-.428 0-.87-.145-1.237-.512l-5.47-5.469-.202-.212C7.578 14.145 7 12.658 7 11.089v-.776l.005-.256c.099-2.462 1.62-4.625 3.924-5.548.846-.337 1.737-.509 2.644-.509h2.677l.192.006c1.272.075 2.399.899 2.85 2.102l2.25 6 .069.203c.29.95.132 1.965-.44 2.791l-.128.172c-.615.778-1.539 1.226-2.543 1.226h-3.73l2.005 2.003.113.125c.566.689.528 1.705-.11 2.348zM3.054 14.727C3 14.62 3 14.48 3 14.2V5.8c0-.28 0-.42.054-.527.048-.094.125-.17.219-.218C3.38 5 3.52 5 3.8 5h1.4c.28 0 .42 0 .527.055.094.047.17.124.218.218C6 5.38 6 5.52 6 5.8v8.4c0 .28 0 .42-.055.527-.048.094-.124.17-.218.218C5.62 15 5.48 15 5.2 15H3.8c-.28 0-.42 0-.527-.055-.094-.047-.17-.124-.219-.218z"/>
</svg>
